X:1
T:Title
T:Jupiter: The Bringer of Jollity Arranged for Senior Orch
T:Gustav Holst Arr. Yutaro Yazawa
C:Composer
%%score { ( 1 4 5 ) | ( 2 3 6 ) }
L:1/8
M:2/4
K:C
V:1 treble nm="ピアノ" snm="Pno."
V:4 treble 
V:5 treble 
V:2 treble 
V:3 treble 
V:6 treble 
V:1
 z2!mf! A/c/d/A/ | e/g/a/e/ [ga]/[ac']/[ed']/[ga]/ | %2
 [ac']/[ed']/[ga]/[ac']/ [ed']/[ga]/[ac']/[ed']/ | [ga]/[ac']/[ed']/[ga]/ [ac']/[ed']/[ga]/[ac']/ | %4
 [ed']/[ga]/[ac']/[ed']/ [ga]/[ac']/[ed']/[ga]/ | [ac']/[ed']/[ga]/[ac']/ [ed']/[ga]/[ac']/[ed']/ | %6
 [ga]/[ac']/[ed']/[ga]/ [ac']/[ed']/[ga]/[ac']/ | [ed']/[ga]/[ac']/[ed']/ [ga]/[ac']/[ed']/[ga]/ | %8
 [ac']/[ed']/[ga]/[ac']/ [ed']/[ga]/[ac']/[ed']/ | [ga]/[ac']/[ed']/[ga]/ [ac']/[ed']/[ga]/[ac']/ | %10
 [ed']/[ga]/[ac']/[ed']/ [ga]/[ac']/[ed']/[ga]/ | [ac']/[ed']/[ga]/[ac']/ [ed']/[ga]/[ac']/[ed']/ | %12
 z2 !>![Beb]2- | [Beb]4- | [Beb]4 |!ff! f _e2 _B- | Bd c2 | _BA GF | z4 | %19
!f![Q:1/4=150]"^\n" Gc f2 | Gc f2 | Gc fg | d4 | A,D G2 | ^DA d2 | A,D GA | ^DA d^d | DG ^cG | %28
 ^cg DG | ^cG cg | DG ^c!breath![Ge] |[Q:1/4=140]"^\n" z4 | z4 | z4 | z4[Q:1/4=145] | z4 | z4 | %37
[Q:1/4=150] z4 | z4 | z4 | z4 | z4 | z4 | a b2 g- | gb a2 |!>(! b/c'/a/b/ c'>g-!>)! | g2 ba- | %47
 a2 g2- | g2 e2 | c2 A2 | G z z2 |[M:3/4][Q:1/4=160]"^\n"!ff! G2 D2 E2 | F2 E2 D2 | G2 D2 E2 | %54
 A,2 B,2 C2 | G2 D2 E2 | FG A2 (3GAG | F2 (3EFE D2 | (3A,G,A, B,2 C2 | G2 D2 E2 | F2 E2 D2 | %61
 G2 D2 E2 | A,2 B,2 C2 | G2 D2 E2 | FG A2 (3GAG | F2 (3EFE D2 | (3A,G,A, B,2 C2 | G2 D2 E2 | %68
 F2 E2 D2 | G2 D2 E2 | A,2 B,2 C2 | G2 D2 E2 | FG A2 (3GAG | F2 (3EFE D2 | (3A,G,A, B,2 C2 | %75
[M:2/4][Q:1/4=170]"^\n"!fff! !>!_d4- | d4- | d4- | d4 | z _d2 d- | d_d d2 | _d/d/d/d/ d>d | %82
 _dd z d | e4- | e4- | e4 |[Q:1/4=160]!mf! A,4- | A,4 | G,_B, C2 | G,_B, C2 | z2[Q:1/4=150] C_E | %91
 GG z2 | z2[Q:1/4=145] g_b | c'4- | c'2[Q:1/4=140] g z |[Q:1/4=135] z4 | %96
!mp![Q:1/4=130] [cea] z z2 |!ff![Q:1/4=120] G2 _B2 ||[K:Eb][M:3/4][Q:1/4=75] c2 ce d>B | ef e2 d2 | %100
 cd c2 B2 | G2- G2 GB | c2 ce d>B | ef g2 g2 | gf e2 f2 | e2- e2 bg | f2 f2 eg | f2 B2 bg | %108
 f2 f2 gb | c'2- c'2 c'd' |!<(! e'2 d'2 c'2!<)! | b2 e'2 g2 |!<(! fe f2 g2!<)! | b2- b2!ff! gb | %114
!fff! c'2 c'e' d'>b | e'f' e'2 d'2 | c'd' c'2 b2 | g2- g2 gb | c'2 c'e' d'>b | e'f' g'2 g'2 | %120
 g'f' e'2!>(! f'2-!>)! | f'2- f'2- f' z |[M:2/4][Q:1/4=170]!mf! B,E A2 | B,E AB | F4 | EA de | B4 | %127
 EG de | =ea d'=e' |!f! E,A, D=E ||[K:C]!ff! ^f ^g2 e- | e^g ^f2 | ^g/a/^f/g/ a>e | ^g ^f2 E- | %134
 E/^F/A/^c/ e>e | ^f ^g2 e | z4 | z4 | z4 | z4 | z4 |[M:3/4][Q:1/4=173]!ff! _d2 _A2 _B2 | %142
 B2 _B2 _A2 |[Q:1/4=175] _d2 _A2 _B2 | _E2 F2 _G2 | _d2 _A2 _B2 | B_d _e2[Q:1/4=180] (3ded | %147
 B2 (3_B=B_B _A2 | (3_E_DE F2 _G2 |[Q:1/4=183]!f! e'c' ge c/e/g/c'/ | z2 d'4 | e'c' ge c/e/g/c'/ | %152
 z2 d'4 | e'c' ge gc' |[Q:1/4=185] d'_b fd fb | c'g ec eg |[Q:1/4=188] _bf d_B df | %157
 g z!ff! d!<(!e c2-!<)! | ce d4 |!<(! z2 (3ded de!<)! | f2 e2 d2 | z2 de c2- |[Q:1/4=190] ce d4 | %163
[Q:1/4=195] de cd e>c | f2 e2 d2 |[M:2/4][Q:1/4=185]!fff!!f!!fff!!<(! !>![CEGegc'e'g'c'']4-!<)! | %166
 [CEGegc'e'g'c'']4- | [CEGegc'e'g'c'']4 | [CEGegc'e'g'c'']4 |!<(! z g2 [eg]-!<)! | [eg][eg] [eg]2 | %171
 [eg]/[eg]/[eg]/[eg]/ [eg]>[eg] | [eg][eg] z [eg] |[Q:1/4=175]!<(! !>![CEGegc'e'g'c'']4!<)! | %174
[Q:1/4=170] !>![Ff'f'']4 |[Q:1/4=165] !>![_B,DFdf_bd'f'_b']4- | %176
 !>![B,DFdfbd'f'b']2[Q:1/4=155] !>![d'd'']2 |[Q:1/4=160] !>![CEGegc'e'g'c'']4- | %178
 [CEGegc'e'g'c'']4 | !>![CEGegc'e'g'c'']2 z2 |] %180
V:2
!mf! E/G/A/E/ !/!G!/!E | !/![Ac]!/![GA] !/![Ed]!/![Ac] | !/![GA]!/![Ed] !/![Ac]!/![GA] | %3
 !/![Ed]!/![Ac] !/![GA]!/![Ed] | !/![Ac]!/![GA] !/![Ed]!/![Ac] |!f! !/![GA]!/![Ed] !/![Ac]!/![AA] | %6
 !/![Ed]!/![Ac] !/![GA]!/![Ed] | !/![Ac]!/![GA] !/![Ed]!/![Ac] | !/![GA]!/![Ed] !/![Ac]!/![GA] | %9
 !/![Ed]!/![Ac] !/![GA]!/![Ed] | !/![Ac]!/![GA] !/![Ed]!/![Ac] | !/![GA]!/![Ed] !/![Ac]!/![GA] | %12
 z2 !>![^G,,E^G]2- | [G,,EG]4- | [G,,EG]4 |!ff! [F,A,] [_E,G,]2 [_B,,D,]- | [B,,D,][D,F,] [C,E,]2 | %17
 [_B,,D,][A,,C,] [G,,B,,][F,,A,,] | z4 | z4 | z4 | z4 | z4 |!<(! z4!<)! | z4 | z4 | z4 | %27
!<(! z4!<)! | z4 | z4 | z2 z [^D^A] |!ff! B,D E2- | E^F GA | ^FD D2- | D2 B,D | E3 ^F | GA Bd | %37
 ^cA ^F2- | F2 ^cA | ^F3 B | GE CA, | ^F,D, D,2- | D,4- | D, z z2 | z4 | z4 |!mf! DG c2 | EA d2 | %48
 DG cE | A d3 |!<(! DG cd!<)! |[M:3/4] [G,B,G]2 z2 z2 | [F,A,F]2 z2 z2 | [G,B,G]2 z2 z2 | %54
 [D,A,]2 z2 z2 | [G,DG]2 z2 z2 | [F,A,F]2 z2 z2 | [G,B,F]2 z2 z2 | [D,A,]2 z2 z2 | z2!ff! B4 | %60
 AF DA, DF | z2 B4 | cA FD FA | z2 B4 | AF CA, CF | BG DB, DG | cA FC FA | z2 A,B, G,2- | %68
 G,B, A,4 | z2 (3A,B,G, A,>B, | C2 B,2 A,2 | z2 A,B, G,2- | G,B, A,4 | A,B, G,A, B,>G, | %74
 C2 B,2 A,2 |[M:2/4]!fff! !>!_G4- | G4- | G4- | G4 | z _B,,2 B,,- | B,,_B,, B,,2 | %81
 _B,,/B,,/B,,/B,,/ B,,>B,, | _B,,B,, z B,, | G,,4- | G,,4- | G,,4 |!mf! G,/G,/G,/G,/ G,/G,/G,/G,/ | %87
 G,/G,/G,/G,/ G,/G,/G,/G,/ | G,/G,/G,/G,/ G,/G,/G,/G,/ | G,/G,/G,/G,/ G,/G,/G,/G,/ | %90
 G,/G,/G,/G,/ G,/G,/G,/G,/ | G,/G,/G,/G,/ G,/G,/G,/G,/ | G,/G,/G,/G,/ G,/G,/G,/G,/ | %93
 G,/G,/G,/G,/ G,/G,/G,/G,/ | G,/G,/G,/G,/ G, z | z4 |!mp! [G,D_Bg] z z2 | z4 || %98
[K:Eb][M:3/4]!ff! [A,,EAc]2 z2 [B,,FBd]2 | [G,,EBe]2 z2 [G,,EBd]2 | [A,,EAc]2 z2 [B,,DF]2 | %101
 [C,CEG]4 [B,,B,DG]2 | [A,,EAc]2 z2 [B,,FBd]2 | [G,,EBe]2 z2 [E,,E-B-d-][G,,EBd] | %104
 [A,,A,Ac]2 z2 [C,CAc]2 | z2 [E,,E,G,B,]2 [G,,G,B,E]2 | [B,,F,B,D]2 z2 [C,G,CE]2 | %107
 [D,B,DF]2 z2 [G,,G,B,E]2 | [B,,F,B,D]2 z2 [E,G,B,E]2 | [A,C-E-]2 [G,C-E]2 [F,A,C]2 | %110
!<(! [Cc]2 [B,B]2 [A,A]2!<)! | [G,G]2 [F,F]2 [E,E]2 |!<(! [A,A]2 [F,F]2 [E,E]2!<)! | %113
 [Dd]2 [Cc]2 [B,B]2 |!fff! [A,,EAc]2 z2 [B,,FBd]2 | [G,,EBe]2 z2 [G,,EBd]2 | %116
 [A,,EAc]2 z2 [B,,DF]2 | [C,CEG]4 [B,,B,DG]2 | [A,,EAc]2 z2 [B,,FBd]2 | %119
 [G,,EBe]2 z2 [E,,E-B-d-][G,,EBd] | [A,,A,Ac]2 z2!>(! [C,CAc]2-!>)! | %121
 [C,CAc]2- [C,CAc]2- [C,CAc] z |[M:2/4] z4 | z4 |!mf! CF Bc | F4 | Be ab | fa e'f' | z2!f! FA | %129
 df z2 ||[K:C] z4 | z4 | z4 | z4 | z4 | z4 |!mf! Gc f2 | Ad g2 | Gc fA | d g3 | Gc fg | %141
[M:3/4] [F_d_a]2 z2 z2 | [_EB_g]2 z2 z2 | [F_d_a]2 z2 z2 | [_GA_d]2 z2 z2 | [F_d_a]2 z2 z2 | %146
 [_EB_g]2 z2 z2 | [F_d_a]2 z2 z2 | [_AB_e]2 z4 |!f! z2 G2 A2 | _B2 A2 G2 | z2 G2 A2 | D2 E2 F2 | %153
 c2 G2 A2 | _Bc d2 (3cdc | _B2 (3ABA G2 | (3dcd e2 f2 | c2!ff! G2!<(! A2!<)! | _B2 A2 G2 | %159
!<(! c2 G2 A2!<)! | D2 E2 F2 | c2 G2 A2 | _Bc d2 (3cdc | _B2 (3ABA G2 | (3DCD E2 F2 | %165
[M:2/4][K:bass]!fff!!f!!fff!!fff!!<(! !>![C,,,E,,,G,,,C,,E,,G,,C,E,G,CEG]4-!<)! | %166
 [C,,,E,,,G,,,C,,E,,G,,C,E,G,CEG]4- | [C,,,E,,,G,,,C,,E,,G,,C,E,G,CEG]4 | %168
 [C,,,E,,,G,,,C,,E,,G,,C,E,G,CEG]4 |!<(! z !>![C,,,C,,C,]2 !>![C,,,C,,C,]-!<)! | %170
 !>![C,,,C,,C,]!>![C,,,C,,C,] !>![C,,,C,,C,]2 | %171
 !>![C,,,C,,C,]/!>![C,,,C,,C,]/!>![C,,,C,,C,]/!>![C,,,C,,C,]/ !>![C,,,C,,C,]>!>![C,,,C,,C,] | %172
 !>![C,,,C,,C,]!>![C,,,C,,C,] z !>![C,,,C,,C,] | %173
!fff!!fff!!fff!!fff!!fff!!fff!!<(! !>![C,,,E,,,G,,,C,,E,,G,,C,E,G,CEG]4!<)! | %174
!fff!!fff!!fff!!fff!!fff!!fff! !>![F,,,F,,F,F]4 | %175
!fff!!fff!!fff!!fff!!fff!!fff! !>![_B,,,,D,,,F,,,_B,,,D,,F,,_B,,D,F,_B,DF]4- | %176
!fff!!fff! !>![B,,,,D,,,F,,,B,,,D,,F,,B,,D,F,B,DF]2!fff!!fff!!fff!!fff!!fff!!fff! !>![A,,,,A,,,A,,D,A,D]2 | %177
!fff!!fff!!fff!!fff!!fff!!fff! !>![C,,,E,,,G,,,C,,E,,G,,C,E,G,CEG]4- | %178
!fff!!fff!!fff!!fff! [C,,,E,,,G,,,C,,E,,G,,C,E,G,CEG]4 | %179
 !>![C,,,E,,,G,,,C,,E,,G,,C,E,G,CEG]2!fff!!fff!!fff!!fff! z2 |] %180
V:3
 x4 | x4 | x4 | x4 | x4 | A,, B,,2 G,,- | G,, B,, A,,2 | B,,/C,/A,,/B,,/ C,>G,,- | G,,2 B,,A,, | %9
 G,,/A,,/C,/E,/ G,>G, | A, B,2 G,- | G, z z2 | x4 | x4 | x4 | x4 | x4 | x4 | x4 | x4 | x4 | x4 | %22
 x4 | x4 | x4 | x4 | x4 | x4 | x4 | x4 | x4 | x4 | x4 | x4 | x4 | x4 | x4 | x4 | x4 | x4 | x4 | %41
 x4 | x4 | x4 | x4 | x4 | x4 | x4 | x4 | x4 | x4 |[M:3/4] x6 | x6 | x6 | x6 | x6 | x6 | x6 | x6 | %59
 x6 | x6 | x6 | x6 | x6 | x6 | x6 | x6 | x6 | x6 | x6 | x6 | x6 | x6 | x6 | x6 |[M:2/4] !>!_B,,4- | %76
 B,,4- | B,,4- | B,,4 | x4 | x4 | x4 | x4 | E4- | E4- | E4 | x4 | x4 | x4 | x4 | x4 | x4 | x4 | %93
 x4 | x4 | x4 | x4 | x4 ||[K:Eb][M:3/4] x6 | x6 | x6 | x6 | x6 | x6 | x6 | x6 | x6 | x6 | x6 | x6 | %110
 x6 | x6 | x6 | x6 | x6 | x6 | x6 | x6 | x6 | x6 | x6 | x6 |[M:2/4] x4 | x4 | x4 | x4 | x4 | x4 | %128
 z2 B,D | Ac z2 ||[K:C] x4 | x4 | x4 | x4 | x4 | x4 | x4 | x4 | x4 | x4 | x4 |[M:3/4] x6 | x6 | %143
 x6 | x6 | x6 | x6 | x6 | x6 | x6 | x6 | x6 | x6 | x6 | x6 | x6 | x6 | x6 | x6 | x6 | x6 | x6 | %162
 x6 | x6 | x6 |[M:2/4][K:bass] x4 | x4 | x4 | x4 | z E2 E- | EE E2 | E/E/E/E/ E>E | EE z E | x4 | %174
 x4 | x4 | x2 !>!d2 | x4 | x4 | x2 z2 |] %180
V:4
 x4 | x4 | x4 | x4 | x4 | x4 | x4 | x4 | x4 | x4 | x4 | x4 | x4 | x4 | x4 | x4 | x4 | x4 | x4 | %19
 x4 | x4 | x4 | x4 | x4 | x4 | x4 | x4 | x4 | x4 | x4 | x4 | x4 | x4 | x4 | x4 | x4 | x4 | x4 | %38
 x4 | x4 | x4 | x4 | x4 | x4 | x4 | x4 | x4 | x4 | x4 | x4 | x4 |[M:3/4] x6 | x6 | x6 | x6 | x6 | %56
 x6 | x6 | x6 | x6 | x6 | x6 | x6 | x6 | x6 | x6 | x6 | x6 | x6 | x6 | x6 | x6 | x6 | x6 | x6 | %75
[M:2/4] x4 | x4 | x4 | x4 | z _G2 G- | G_G G2 | _G/G/G/G/ G>G | _GG z G | G4- | G4- | G4 | D4- | %87
 D4 | x4 | x4 | x4 | x4 | x4 | x4 | x4 | x4 | x4 | x4 ||[K:Eb][M:3/4] x6 | x6 | x6 | x6 | x6 | x6 | %104
 x6 | x6 | x6 | x6 | x6 | x6 | x6 | x6 | x6 | z2 z2 GB | c2 ce d>B | ef e2 d2 | cd c2 B2 | %117
 G2- G2 GB | c2 ce d>B | ef g2 g2 | gf e2 f2- | f2- f2- f z |[M:2/4] z4 | x4 | x4 | x4 | x4 | x4 | %128
 Bd ab | B,D AB ||[K:C] x4 | x4 | x4 | x4 | x4 | x4 | x4 | x4 | x4 | x4 | x4 |[M:3/4] x6 | x6 | %143
 x6 | x6 | x6 | x6 | x6 | x6 | c'g ec G/c/e/g/ | z2 _b4 | c'g ec G/c/e/g/ | z2 _b4 | c'g ec eg | %154
 _bf dB df | ge cG ce | fd _BF Bd | e z z4 | x6 | x6 | x6 | x6 | x6 | x6 | x6 |[M:2/4] !>!c4- | %166
 c4- | c4 | c4 | z !>![Ge]2 !>!G- | !>!G!>!G !>!G2 | !>!G/!>!G/!>!G/!>!G/ !>!G>!>!G | %172
 !>!G!>!G z !>!G | c4 | f4 | _B4- | B2 !>!d2 | !>!c4- | c4 | c2 z2 |] %180
V:5
 x4 | x4 | x4 | x4 | x4 | x4 | x4 | x4 | x4 | x4 | x4 | x4 | x4 | x4 | x4 | x4 | x4 | x4 | x4 | %19
 x4 | x4 | x4 | x4 | x4 | x4 | x4 | x4 | x4 | x4 | x4 | x4 | x4 | x4 | x4 | x4 | x4 | x4 | x4 | %38
 x4 | x4 | x4 | x4 | x4 | x4 | x4 | x4 | x4 | x4 | x4 | x4 | x4 |[M:3/4] x6 | x6 | x6 | x6 | x6 | %56
 x6 | x6 | x6 | x6 | x6 | x6 | x6 | x6 | x6 | x6 | x6 | x6 | x6 | x6 | x6 | x6 | x6 | x6 | x6 | %75
[M:2/4] x4 | x4 | x4 | x4 | x4 | x4 | x4 | x4 | B4- | B4- | B4 | A4- | A4 | x4 | x4 | x4 | x4 | %92
 x4 | x4 | x4 | x4 | x4 | x4 ||[K:Eb][M:3/4] x6 | x6 | x6 | x6 | x6 | x6 | x6 | x6 | x6 | x6 | x6 | %109
 x6 | x6 | x6 | x6 | x6 | x6 | x6 | x6 | x6 | x6 | x6 | x6 | x6 |[M:2/4] x4 | x4 | x4 | x4 | x4 | %127
 x4 | x4 | x4 ||[K:C] x4 | x4 | x4 | x4 | x4 | x4 | x4 | x4 | x4 | x4 | x4 |[M:3/4] x6 | x6 | x6 | %144
 x6 | x6 | x6 | x6 | x6 | x6 | x6 | x6 | x6 | x6 | x6 | x6 | x6 | x6 | x6 | x6 | x6 | x6 | x6 | %163
 x6 | x6 |[M:2/4] x4 | x4 | x4 | x4 | z !>![c'c'']2 !>![c'c'']- | %170
 !>![c'c'']!>![c'c''] !>![c'c'']2 | %171
 !>![c'c'']/!>![c'c'']/!>![c'c'']/!>![c'c'']/ !>![c'c'']>!>![c'c''] | %172
 !>![c'c'']!>![c'c''] z !>![c'c''] | z4 | z4 | z4 | z2 z2 | x4 | x4 | z2 z2 |] %180
V:6
 x4 | x4 | x4 | x4 | x4 | x4 | x4 | x4 | x4 | x4 | x4 | x4 | x4 | x4 | x4 | x4 | x4 | x4 | x4 | %19
 x4 | x4 | x4 | x4 | x4 | x4 | x4 | x4 | x4 | x4 | x4 | x4 | x4 | x4 | x4 | x4 | x4 | x4 | x4 | %38
 x4 | x4 | x4 | x4 | x4 | x4 | x4 | x4 | x4 | x4 | x4 | x4 | x4 |[M:3/4] x6 | x6 | x6 | x6 | x6 | %56
 x6 | x6 | x6 | x6 | x6 | x6 | x6 | x6 | x6 | x6 | x6 | x6 | x6 | x6 | x6 | x6 | x6 | x6 | x6 | %75
[M:2/4] x4 | x4 | x4 | x4 | x4 | x4 | x4 | x4 | x4 | x4 | x4 | x4 | x4 | x4 | x4 | x4 | x4 | x4 | %93
 x4 | x4 | x4 | x4 | x4 ||[K:Eb][M:3/4] x6 | x6 | x6 | x6 | x6 | x6 | x6 | x6 | x6 | x6 | x6 | x6 | %110
 x6 | x6 | x6 | x6 | x6 | x6 | x6 | x6 | x6 | x6 | x6 | x6 |[M:2/4] x4 | x4 | x4 | x4 | x4 | x4 | %128
 z2 F,A, | DF z2 ||[K:C] x4 | x4 | x4 | x4 | x4 | x4 | x4 | x4 | x4 | x4 | x4 |[M:3/4] x6 | x6 | %143
 x6 | x6 | x6 | x6 | x6 | x6 | x6 | x6 | x6 | x6 | x6 | x6 | x6 | x6 | x6 | x6 | x6 | x6 | x6 | %162
 x6 | x6 | x6 |[M:2/4][K:bass] x4 | x4 | x4 | x4 | z c2 !>!c- | !>!c!>!c !>!c2 | %171
 !>!c/!>!c/!>!c/!>!c/ !>!c>!>!c | !>!c!>!c z !>!c | z4 | z4 | z4 | z2 z2 | x4 | x4 | z2 z2 |] %180

